X:7
T:Blarney Pilgrim
M:6/8
L:1/8
R:jig
C:Traditional
K:Dmix
DE/D/D DEG | AA/A/A ABc | BAG AGE | GEA GED |
DE/D/D DEG | AA/A/A ABc | BAG AGE | GED D3 :|
|: de/d/d dBG | AGA BGE | de/d/d dBG | AGA B2d |
(g/a/g)e dBG | AGA BGE | BG/G/G AGE | GAG G3 :|
|: AD/D/D B2D | A2D AB/B/c | BAG AGE | GEA GED |
AD/D/D B2D | A2D AB/B/c | BAG AGE | GED D3 :|

